X:1
T:Jesus, the Light of the World
T:Jesus, the Light of the World
T:Charles Lauren Moore
T:Friend S. Robinson, 1892
T:Public Domain Courtesy of the Cyber Hymnal™
C:Charles Lauren Moore
Z:Public Domain
Z:Courtesy of the Cyber Hymnal™
%%score ( 1 2 ) ( 3 4 )
L:1/8
Q:1/4=95
M:6/8
K:G
V:1 treble 
V:2 treble 
V:3 bass 
V:4 bass 
V:1
 [DB][DB][DB] [DB][CA][B,G] | [CA][B,G][DA] [DB]3 | [Gd][Gd][Gd] [Ge][Gd][GB] | [FA]3- [FA]2 z | %4
w: 1.~Bur- dened with sin’s dark- est|night of dis- tress,|Je- sus, the light of the|world, *|
w: 2.~Look- ing to Je- sus who|shed His own blood,|Je- sus, the light of the|world, *|
w: 3.~Trav- elers in dark- ness with|sin blind- ed eyes,|Je- sus, the light of the|world, *|
w: 4.~Need- less the sun- light in|Hea- ven we’re told,|Je- sus, the light of the|world, *|
 [DB][DB][DB] [DB][CA][B,G] | [CA][B,G][DA] [DB]3 | [Gd][Gd][Gd] [Ge][Gd][GB] | [FA]3 G3 || %8
w: Light will break in if your|sins you con- fess,|Je- sus, the bright- ness of|glo- ry.|
w: Los- ing your bur- dens and|gain- ing His love,|Je- sus, the bright- ness of|glo- ry.|
w: Look at His bid- ding, and|light will a- rise,|Je- sus, the bright- ness of|glo- ry.|
w: Christ is the light in the|ci- ty of gold,|Je- sus, the bright- ness of|glo- ry.|
"^Refrain" d4 [GB][Gd] | [Ge][Ge][Ge] [Gd]3 | [Gd][Gd][Gd] [Ge][Gd][GB] | [FA]3- [FA]2 z | %12
w: ||||
w: Je- sus the|beau- ti- ful, beau-|ti- ful light, Beau- ti- ful|light *|
w: ||||
w: ||||
 [GB][GB][GB] [GB][GA]G | [FA][EG][FA] [GB]3 | (d3 e)[Gd][GB] | [FA]3 G3 |] %16
w: ||||
w: of the world, Beau- ti- ful,|beau- ti- ful light|of * the world,|Bright- ness|
w: ||||
w: ||||
V:2
 x6 | x6 | x6 | x6 | x6 | x6 | x6 | x3 G3 || GGG G x2 | x6 | x6 | x6 | x5 G | x6 | G4 x2 | x3 G3 |] %16
V:3
 [G,,G,][G,,G,][G,,G,] [G,,G,][G,,G,][G,,G,] | [D,F,][D,G,][D,F,] G,3 | %2
w: ~ ~ ~ ~ ~ ~|~ ~ ~ ~|
 [G,B,][G,B,][G,B,] [G,C][B,D][G,D] | [D,D]3- [D,D]2 z | G,G,G, [G,,G,][G,,G,][G,,G,] | %5
w: ~ ~ ~ ~ ~ ~|~ *|~ ~ ~ ~ ~ ~|
 [D,F,][E,G,][D,F,] G,3 | [G,B,][G,B,][G,B,] [G,C][B,D][G,D] | [D,C]3 [G,B,]3 || %8
w: ~ ~ ~ ~|~ ~ ~ ~ ~ ~|~ ~|
 [G,B,][G,B,][G,B,] [G,B,][G,D][G,B,] | [C,C][C,C][E,C] [G,B,]3 | %10
w: ~ ~ ~ ~ ~ ~|~ ~ ~ ~|
 [G,B,][G,B,][G,B,] [G,C][G,B,][G,D] | [D,D]3- [D,D]2 z | [G,D][G,D][G,D] [G,D][G,C][G,B,] | %13
w: ~ ~ ~ ~ ~ ~|~ *|~ ~ ~ ~ ~ ~|
 [D,D][E,B,][D,D] [G,D]3 | [G,B,][G,B,][G,B,] [G,C][G,B,][G,D] | [D,C]3 [G,,G,B,]3 |] %16
w: ~ ~ ~ ~|Je- sus, the bright- ness of|glo- ry|
V:4
 x6 | x3 G,3 | x6 | x6 | G,G,G, x3 | x3 G,3 | x6 | x6 || x6 | x6 | x6 | x6 | x6 | x6 | x6 | x6 |] %16

